src/assets/ascending-sort.svg

<svg width="18" height="18" fill="none" xmlns="http://www.w3.org/2000/svg"><path d="M11.25 7.5V3.75c0-1.035.465-1.5 1.5-1.5s1.5.465 1.5 1.5V7.5m0-2.25h-3M14.25 15.75h-3l3-5.25h-3M3 11.25l2.25 2.25 2.25-2.25M5.25 4.5v9" stroke="#16ABF8" stroke-linecap="round" stroke-linejoin="round"/></svg>

<svg width="18" height="18" viewBox="0 0 18 18" fill="none" xmlns="http://www.w3.org/2000/svg">
<path d="M11.25 7.5V3.75C11.25 2.715 11.715 2.25 12.75 2.25C13.785 2.25 14.25 2.715 14.25 3.75V7.5M14.25 5.25H11.25" stroke="#16ABF8" stroke-linecap="round" stroke-linejoin="round"/>
<path d="M14.25 15.75H11.25L14.25 10.5H11.25" stroke="#16ABF8" stroke-linecap="round" stroke-linejoin="round"/>
<path d="M3 11.25L5.25 13.5L7.5 11.25" stroke="#16ABF8" stroke-linecap="round" stroke-linejoin="round"/>
<path d="M5.25 4.5V13.5" stroke="#16ABF8" stroke-linecap="round" stroke-linejoin="round"/>
</svg>
